X: 580
T: Peacock Jigg
M:6/4
L:1/4
S: 8: MCJLSH3 http://www.cpartington.plus.com/links/Walsh.abc
Z: Pete Stewart 2004
B: Walsh "Third Book of the most Celebrated jiggs, Lancashire hornpipes, ..."
K:E
E3G2A | BGEe2B | c/d/ecBA/G/F/E/ | F3B,3 | E3G2A | BGEe2d | c/d/ecfeB | e3E3 ||
g3ed/c/B | (e3e2)B | c/d/ecBA/G/F/E/ | F3B,2f/g/ | a3g3 | f/g/ a/g/f/e/d2B | c/d/ecf dB | e3E3 ||

%%sep 1 1 500
%%sep 1 1 500
